X: 1142
T: Sodger Laddie.   a Jig.
%R: jig, air
B: Niel Gow & Sons "Complete Repository" v.1 p.14 #2
Z: 2021 John Chambers <jc:trillian.mit.edu>
M: 6/8
L: 1/8
K: G
% - - - - - - - - - -
% Voice 1 formatted for proofreading.
V: 1 staves=2
g |\
TB>AG GDE | A>BA ABd | .e/.f/.gG G>DE | TG>AG B2G || cAc BGB | A>BA ABd | .e/.f/.gG GDE | TG>AG G2 :|
|: (d//e//f/) | Tg>ag gdB | A(.a.a) Ta2g  def gdB | Tg>ag gdB || c(.a.c) B(.g.B) | aAA ABd | .e/.f/.gG GDE | TG>AG G2 :|
% - - - - - - - - - -
% Voice 2 preserves the book's staff layout.
V: 2 clef=bass middle=d
z | G3 G3 | A3 A3 | G3 g3 | G3 g3 || a3 g3 |
f3 d3 | g3 d3 | G3 G2 :||: z | g3 g3 | a3 a3 | g3 g3 |
g3 g3 || a3 g3 | f3 d3 | g3 d3 | G3 G2 :|


